mimetypes/symbolic/image-x-generic-symbolic.svg

<svg height="16" viewBox="0 0 16 16" width="16" xmlns="http://www.w3.org/2000/svg"><path d="m2.6380207 2c-.3532335 0-.6380209.309673-.6380209.6953129v10.6080721c0 .38564.2847873.696615.6380208.696615h10.7239584c.353233 0 .638021-.310975.638021-.696615v-10.6080721c0-.3856399-.284788-.6953129-.638021-.6953129zm6.7877605 4.2877605 2.5742188 3.4244789h-8.0000001l2-2.566406 1.4257812 1.716146z" fill="#bebebe"/></svg>

<?xml version="1.0" encoding="UTF-8" standalone="no"?>
<svg
   xmlns:dc="http://purl.org/dc/elements/1.1/"
   xmlns:cc="http://creativecommons.org/ns#"
   xmlns:rdf="http://www.w3.org/1999/02/22-rdf-syntax-ns#"
   xmlns:svg="http://www.w3.org/2000/svg"
   xmlns="http://www.w3.org/2000/svg"
   xmlns:sodipodi="http://sodipodi.sourceforge.net/DTD/sodipodi-0.dtd"
   xmlns:inkscape="http://www.inkscape.org/namespaces/inkscape"
   version="1.1"
   width="16"
   height="16"
   viewBox="0 0 16 16"
   id="svg2"
   inkscape:version="0.92+devel unknown"
   sodipodi:docname="image-x-generic-symbolic.svg">
  <metadata
     id="metadata10">
    <rdf:RDF>
      <cc:Work
         rdf:about="">
        <dc:format>image/svg+xml</dc:format>
        <dc:type
           rdf:resource="http://purl.org/dc/dcmitype/StillImage" />
        <dc:title />
      </cc:Work>
    </rdf:RDF>
  </metadata>
  <defs
     id="defs8" />
  <sodipodi:namedview
     pagecolor="#ffffff"
     bordercolor="#666666"
     borderopacity="1"
     objecttolerance="10"
     gridtolerance="10"
     guidetolerance="10"
     inkscape:pageopacity="0"
     inkscape:pageshadow="2"
     inkscape:window-width="640"
     inkscape:window-height="480"
     id="namedview6"
     showgrid="false"
     inkscape:zoom="18.708867"
     inkscape:cx="-2.8738237"
     inkscape:cy="11.068509"
     inkscape:current-layer="svg2"
     inkscape:document-rotation="0" />
  <path
     inkscape:connector-curvature="0"
     style="opacity:1;fill:#bebebe;fill-opacity:1;fill-rule:nonzero;stroke:none;stroke-width:1.33242249;stroke-linecap:butt;stroke-linejoin:round;stroke-miterlimit:4;stroke-dasharray:none;stroke-dashoffset:0;stroke-opacity:1"
     d="M 2.6380207,2 C 2.2847872,2 1.9999998,2.309673 1.9999998,2.6953129 V 13.303385 C 1.9999998,13.689025 2.2847871,14 2.6380206,14 H 13.361979 C 13.715212,14 14,13.689025 14,13.303385 V 2.6953129 C 14,2.309673 13.715212,2 13.361979,2 Z M 9.4257812,6.2877605 12,9.7122394 H 3.9999999 l 2,-2.566406 1.4257812,1.716146 z"
     id="path4531" />
</svg>
